X:295
T:Bonnie Wee Jeanie McColl #2
C:Joe Buchanan's Scottish Tome - Page 439.3
I:439 3
Z:Carl Allison
R:Jig
L:1/8
M:6/8
K:C
E | C2 C E2 G | ccc c2 c | ccc cG^G | A3- A2 |
BBB BBB | B2 B BBB | ccc B2 A | G3- G2 G |
C2 C E2 G | c2 c c2 c | c2 G ^F2 G | A3- A3 |
G3 B2 c | d3 d2 B | GGG GAB | c3- c2 :|

